X:1
T:What a Friend We Have in Jesus
T:Text: Joseph M. Scriven (1819-1886) Tune: Charles C. Converse (1832-1918)
T:87 87D CONVERSE www.hymnary.org/text/what_a_friend_we_have_in_jesus_all_our_s
T:What a Friend We Have in Jesus
T:This hymn is in the public domain.  You may freely use this score for personal and congregational worship.  If you reproduce the score, please credit Hymnary.org as the source. 
T:This hymn is in the public domain.  You may freely use this score for personal and congregational worship.  If you reproduce the score, please credit Hymnary.org as the source. 
Z:This hymn is in the public domain.  You may freely use this score for personal and congregational worship.  If you reproduce the score, please credit Hymnary.org as the source.
%%score ( 1 2 ) ( 3 4 )
L:1/8
M:4/4
K:F
V:1 treble nm="Piano" snm="Pno."
V:2 treble 
V:3 bass nm="Piano" snm="Pno."
V:4 bass 
V:1
 [Fc]3 [Fc] [Fd][Fc][FA][CF] | [DF]4 [B,D]4 | C3 [CF] [CA][CF][Fc][FA] | [EG]6 z2 | %4
w: 3~Are we weak and hea- vy|la- den,|cum- bered with a load of|care?|
w: 1~What a friend we have in|Je- sus,|all our sins and griefs to|bear!|
w: 2~Have we tri- als and temp-|ta- tions?|Is there trou- ble a- ny-|where?|
 [Fc]3 [Fc] [Fd][Fc][FA][CF] | [DF]4 [B,D]4 | [A,C]3 [CF] [FA][CG][CF][CE] | [CF]6 z2 | %8
w: Pre- cious Sav- ior, still our|ref- uge—|take it to the Lord in|prayer!|
w: What a pri- vi- lege to|car- ry|e- very- thing to God in|prayer!|
w: We should ne- ver be dis-|cour- aged;|take it to the Lord in|prayer!|
 [EG]3 [^D^F] [EG][=FA][GB][EG] | [FA]4 [Fc]4 | [Fd]3 [Fd] [Fc][FA][GB][FA] | [EG]6 z2 | %12
w: Do your friends des- pise, for-|sake you?|Take it to the Lord in|prayer!|
w: O what peace we of- ten|for- feit,|O what need- less pain we|bear,|
w: Can we find a friend so|faith- ful|who will all our sor- rows|share?|
 [Fc]3 [Fc] [Fd][Fc][FA][CF] | [DF]4 [B,D]4 | [A,C]3 [CF] [FA][CG][CF][CE] | [CF]6 z2 |] %16
w: In his arms he'll take and|shield you;|you wilt find a so- lace|there.|
w: all be- cause we do not|car- ry|e- very- thing to God in|prayer!|
w: Je- sus knows our e- very|weak- ness;|take it to the Lord in|prayer!|
V:2
 x8 | x8 | C3 x5 | x8 | x8 | x8 | x8 | x8 | x8 | x8 | x8 | x8 | x8 | x8 | x8 | x8 |] %16
V:3
 [F,A,]3 [F,A,] [F,B,][F,A,][F,C][F,A,] | [B,,B,]4 [B,,F,]4 | %2
 [F,A,]3 [F,A,] [F,A,][F,A,][F,A,][F,C] | [C,C]6 z2 | [F,A,]3 [F,A,] [F,B,][F,A,][F,C][F,A,] | %5
 [B,,B,]4 [B,,F,]4 | [C,F,]3 [C,A,] [C,C][C,B,][C,A,][C,G,] | [F,A,]6 z2 | %8
 [C,C]3 [C,C] [C,C][C,C][C,C][C,C] | [F,C]4 [F,A,]4 | B,3 B, [A,C][F,C][E,C][F,C] | [C,C]6 z2 | %12
 [F,A,]3 [F,A,] [F,B,][F,A,][F,C][F,A,] | [B,,B,]4 [B,,F,]4 | %14
 [C,F,]3 [C,A,] [C,C][C,B,][C,A,][C,G,] | [F,A,]6 z2 |] %16
V:4
 x8 | x8 | x8 | x8 | x8 | x8 | x8 | x8 | x8 | x8 | B,3 B, x4 | x8 | x8 | x8 | x8 | x8 |] %16

